ES1T1/14/aimg/coco.svg

<svg clip-rule="evenodd" fill-rule="evenodd" stroke-linejoin="round" stroke-miterlimit="2" viewBox="0 0 88 70" xmlns="http://www.w3.org/2000/svg" xmlns:xlink="http://www.w3.org/1999/xlink"><image height="12" transform="matrix(.956167 0 0 .981266 33.4362 1.89384)" width="18" xlink:href="data:image/png;base64,iVBORw0KGgoAAAANSUhEUgAAABIAAAAMCAYAAABvEu28AAAACXBIWXMAAA7EAAAOxAGVKw4bAAAA9UlEQVQokZWSX0sCURDFf64khA+x+Cd6LNak9JNcLvfDDsN8lNJAkkTBR8GQCNQHLxq2667ndYbfnDmcGiUStRTIgFXw7qNoLymBtIAhsABSUXu4GiRqd8ArMAnezYERkIlaszJI1BoRMg3eLQCCdytgDgxErV4KErUa8AIsg3ezs/EU2ALPVRw9Ajvg83wQvNtyeLEjat1CkKi1gS7wHrzb5RwheLeOzjJRu/kHErVboB8hv3mQP5oBGw61OIFELQEGwFcM9aKi2xHQjhU5OuoBPznhXoJtgAnQE7V6Imr3QBovXKVYjW/gKQFawFuFXIo0BtZ7NjlYH+/jgw0AAAAASUVORK5CYII="/><g fill-rule="nonzero"><path d="m34.196 12.776-.792-.646c.318-.39.928-1.24 1.7-2.317 4.12-5.75 6.433-8.691 7.637-8.808.241-.023.465.049.631.206 1.162 1.093 5.703 7.977 7.243 10.715l-.89.501c-1.536-2.73-5.819-9.176-6.965-10.384-1.136.424-5.106 5.964-6.827 8.365-.781 1.091-1.399 1.953-1.737 2.368" fill="#af96a0"/><path d="m44.448 1.837c0 .929-.752 1.681-1.681 1.681-.928 0-1.68-.752-1.68-1.681 0-.928.752-1.681 1.68-1.681.929 0 1.681.753 1.681 1.681" fill="#808285"/><path d="m44.223 1.001c.083.199.129.417.129.646 0 .928-.753 1.68-1.681 1.68-.623 0-1.166-.34-1.456-.844.253.609.853 1.036 1.552 1.036.928 0 1.681-.752 1.681-1.681 0-.305-.083-.59-.225-.837" fill="#58595b"/></g><image height="59" transform="matrix(.990412 0 0 .983559 3.1505 11.4624)" width="85" xlink:href="data:image/png;base64,iVBORw0KGgoAAAANSUhEUgAAAFUAAAA7CAYAAAAKC8ZwAAAACXBIWXMAAA7EAAAOxAGVKw4bAAAA/UlEQVR4nO3QLW5CURRF4X2RYEAUxkFQqOI666rqehIEksDjx0IeuYwBmpXbkLX8ydn5Stcdaxp03h/y+/2Txdcq48nkqduamu16k8uuy/xzCS18vdIKtb/3OR2O+ZhNU0p5/r7vc73dMhoOgXV/qxlqktRaXwL97w1aPn9H0KQx6rsmKpCoQKICiQokKpCoQKICiQokKpCoQKICiQokKpCoQKICiQokKpCoQKICiQokKpCoQKICiQokKpCoQKICiQokKpCoQKICiQokKpCoQKICiQokKpCoQKICiQokKpCoQKICiQokKpCoQKICiQokKpCoQKICiQokKpCoQA+gESjDYf1NBwAAAABJRU5ErkJggg=="/><path d="m.016 8.76h84.534v57.751h-84.534z" fill="#8ad0c5"/><path d="m8.909 17.792h66.818v40.035h-66.818z" fill="#fff"/><g fill-rule="nonzero"><path d="m79.11 14.2h-.001l-5.473 5.44h.034v35.99h-.067l5.507 5.41z" fill="#97d5ce"/><path d="m10.897 19.64h.001l-5.408-5.44h-.033v46.831l5.44-5.571z" fill="#73c5b5"/><path d="m73.602 55.629h-62.705v-.169l-5.441 5.57v.039h73.653v-.03z" fill="#99d6d0"/><path d="m73.636 19.64 5.473-5.44h-73.618l5.408 5.44z" fill="#82cec1"/><g fill="#231f20"><path d="m.497-.191c-.022.054-.079.109-.17.11-.104 0-.186-.079-.186-.191 0-.055.021-.106.053-.138.038-.036.078-.054.133-.053.074 0 .142.041.17.114h.107c-.034-.131-.151-.211-.281-.211-.163 0-.286.127-.286.288 0 .151.113.288.291.288.136 0 .243-.089.276-.207z" transform="matrix(20 0 0 20 16.649 43.96)"/><path d="m.037-.272c0 .146.107.287.29.287s.29-.141.29-.287-.107-.288-.29-.288-.29.142-.29.287zm.104 0c0-.109.082-.19.186-.19s.186.081.186.19-.082.19-.186.19-.186-.081-.186-.189z" transform="matrix(20 0 0 20 29.389 43.96)"/><path d="m.497-.191c-.022.054-.079.109-.17.11-.104 0-.186-.079-.186-.191 0-.055.021-.106.053-.138.038-.036.078-.054.133-.053.074 0 .142.041.17.114h.107c-.034-.131-.151-.211-.281-.211-.163 0-.286.127-.286.288 0 .151.113.288.291.288.136 0 .243-.089.276-.207z" transform="matrix(20 0 0 20 42.489 43.96)"/><path d="m.037-.272c0 .146.107.287.29.287s.29-.141.29-.287-.107-.288-.29-.288-.29.142-.29.287zm.104 0c0-.109.082-.19.186-.19s.186.081.186.19-.082.19-.186.19-.186-.081-.186-.189z" transform="matrix(20 0 0 20 55.229 43.96)"/></g></g></svg>

<?xml version="1.0" encoding="UTF-8" standalone="no"?>
<!DOCTYPE svg PUBLIC "-//W3C//DTD SVG 1.1//EN" "http://www.w3.org/Graphics/SVG/1.1/DTD/svg11.dtd">
<svg width="100%" height="100%" viewBox="0 0 88 70" version="1.1" xmlns="http://www.w3.org/2000/svg" xmlns:xlink="http://www.w3.org/1999/xlink" xml:space="preserve" xmlns:serif="http://www.serif.com/" style="fill-rule:evenodd;clip-rule:evenodd;stroke-linejoin:round;stroke-miterlimit:2;">
    <g>
        <g id="_Image1_" serif:id="_Image1" transform="matrix(0.956167,0,0,0.981266,33.4362,1.89384)">
            <use id="_Image1_1" serif:id="_Image1" xlink:href="#_Image1" x="0" y="0" width="18px" height="12px"/>
        </g>
        <path d="M34.196,12.776L33.404,12.13C33.722,11.74 34.332,10.89 35.104,9.813C39.224,4.063 41.537,1.122 42.741,1.005C42.982,0.982 43.206,1.054 43.372,1.211C44.534,2.304 49.075,9.188 50.615,11.926L49.725,12.427C48.189,9.697 43.906,3.251 42.76,2.043C41.624,2.467 37.654,8.007 35.933,10.408C35.152,11.499 34.534,12.361 34.196,12.776" style="fill:rgb(175,150,160);fill-rule:nonzero;"/>
        <path d="M44.448,1.837C44.448,2.766 43.696,3.518 42.767,3.518C41.839,3.518 41.087,2.766 41.087,1.837C41.087,0.909 41.839,0.156 42.767,0.156C43.696,0.156 44.448,0.909 44.448,1.837" style="fill:rgb(128,130,133);fill-rule:nonzero;"/>
        <path d="M44.223,1.001C44.306,1.2 44.352,1.418 44.352,1.647C44.352,2.575 43.599,3.327 42.671,3.327C42.048,3.327 41.505,2.987 41.215,2.483C41.468,3.092 42.068,3.519 42.767,3.519C43.695,3.519 44.448,2.767 44.448,1.838C44.448,1.533 44.365,1.248 44.223,1.001" style="fill:rgb(88,89,91);fill-rule:nonzero;"/>
        <g id="_Image2_" serif:id="_Image2" transform="matrix(0.990412,0,0,0.983559,3.1505,11.4624)">
            <use id="_Image2_1" serif:id="_Image2" xlink:href="#_Image2" x="0" y="0" width="85px" height="59px"/>
        </g>
        <rect x="0.016" y="8.76" width="84.534" height="57.751" style="fill:rgb(138,208,197);"/>
        <rect class="fondo" x="8.909" y="17.792" width="66.818" height="40.035" style="fill:white;"/>
        <path d="M79.11,14.2L79.109,14.2L73.636,19.64L73.67,19.64L73.67,55.63L73.603,55.63L79.11,61.04L79.11,14.2Z" style="fill:rgb(151,213,206);fill-rule:nonzero;"/>
        <path d="M10.897,19.64L10.898,19.64L5.49,14.2L5.457,14.2L5.457,61.031L10.897,55.46L10.897,19.64Z" style="fill:rgb(115,197,181);fill-rule:nonzero;"/>
        <path d="M73.602,55.629L10.897,55.629L10.897,55.46L5.456,61.03L5.456,61.069L79.109,61.069L79.109,61.039L73.602,55.629Z" style="fill:rgb(153,214,208);fill-rule:nonzero;"/>
        <path d="M73.636,19.64L79.109,14.2L5.491,14.2L10.899,19.64L73.636,19.64Z" style="fill:rgb(130,206,193);fill-rule:nonzero;"/>
        <g transform="matrix(1,0,0,1,16.649,43.96)">
            <g transform="matrix(20,0,0,20,0,0)">
                <path d="M0.497,-0.191C0.475,-0.137 0.418,-0.082 0.327,-0.081C0.223,-0.081 0.141,-0.16 0.141,-0.272C0.141,-0.327 0.162,-0.378 0.194,-0.41C0.232,-0.446 0.272,-0.464 0.327,-0.463C0.401,-0.463 0.469,-0.422 0.497,-0.349L0.604,-0.349C0.57,-0.48 0.453,-0.56 0.323,-0.56C0.16,-0.56 0.037,-0.433 0.037,-0.272C0.037,-0.121 0.15,0.016 0.328,0.016C0.464,0.016 0.571,-0.073 0.604,-0.191L0.497,-0.191Z" style="fill:rgb(35,31,32);fill-rule:nonzero;"/>
            </g>
            <g transform="matrix(20,0,0,20,12.74,0)">
                <path d="M0.037,-0.272C0.037,-0.126 0.144,0.015 0.327,0.015C0.51,0.015 0.617,-0.126 0.617,-0.272C0.617,-0.418 0.51,-0.56 0.327,-0.56C0.144,-0.56 0.037,-0.418 0.037,-0.273L0.037,-0.272ZM0.141,-0.272C0.141,-0.381 0.223,-0.462 0.327,-0.462C0.431,-0.462 0.513,-0.381 0.513,-0.272C0.513,-0.163 0.431,-0.082 0.327,-0.082C0.223,-0.082 0.141,-0.163 0.141,-0.271L0.141,-0.272Z" style="fill:rgb(35,31,32);fill-rule:nonzero;"/>
            </g>
            <g transform="matrix(20,0,0,20,25.84,0)">
                <path d="M0.497,-0.191C0.475,-0.137 0.418,-0.082 0.327,-0.081C0.223,-0.081 0.141,-0.16 0.141,-0.272C0.141,-0.327 0.162,-0.378 0.194,-0.41C0.232,-0.446 0.272,-0.464 0.327,-0.463C0.401,-0.463 0.469,-0.422 0.497,-0.349L0.604,-0.349C0.57,-0.48 0.453,-0.56 0.323,-0.56C0.16,-0.56 0.037,-0.433 0.037,-0.272C0.037,-0.121 0.15,0.016 0.328,0.016C0.464,0.016 0.571,-0.073 0.604,-0.191L0.497,-0.191Z" style="fill:rgb(35,31,32);fill-rule:nonzero;"/>
            </g>
            <g transform="matrix(20,0,0,20,38.58,0)">
                <path d="M0.037,-0.272C0.037,-0.126 0.144,0.015 0.327,0.015C0.51,0.015 0.617,-0.126 0.617,-0.272C0.617,-0.418 0.51,-0.56 0.327,-0.56C0.144,-0.56 0.037,-0.418 0.037,-0.273L0.037,-0.272ZM0.141,-0.272C0.141,-0.381 0.223,-0.462 0.327,-0.462C0.431,-0.462 0.513,-0.381 0.513,-0.272C0.513,-0.163 0.431,-0.082 0.327,-0.082C0.223,-0.082 0.141,-0.163 0.141,-0.271L0.141,-0.272Z" style="fill:rgb(35,31,32);fill-rule:nonzero;"/>
            </g>
        </g>
    </g>
    <defs>
        <image id="_Image1" width="18px" height="12px" xlink:href="data:image/png;base64,iVBORw0KGgoAAAANSUhEUgAAABIAAAAMCAYAAABvEu28AAAACXBIWXMAAA7EAAAOxAGVKw4bAAAA9UlEQVQokZWSX0sCURDFf64khA+x+Cd6LNak9JNcLvfDDsN8lNJAkkTBR8GQCNQHLxq2667ndYbfnDmcGiUStRTIgFXw7qNoLymBtIAhsABSUXu4GiRqd8ArMAnezYERkIlaszJI1BoRMg3eLQCCdytgDgxErV4KErUa8AIsg3ezs/EU2ALPVRw9Ajvg83wQvNtyeLEjat1CkKi1gS7wHrzb5RwheLeOzjJRu/kHErVboB8hv3mQP5oBGw61OIFELQEGwFcM9aKi2xHQjhU5OuoBPznhXoJtgAnQE7V6Imr3QBovXKVYjW/gKQFawFuFXIo0BtZ7NjlYH+/jgw0AAAAASUVORK5CYII="/>
        <image id="_Image2" width="85px" height="59px" xlink:href="data:image/png;base64,iVBORw0KGgoAAAANSUhEUgAAAFUAAAA7CAYAAAAKC8ZwAAAACXBIWXMAAA7EAAAOxAGVKw4bAAAA/UlEQVR4nO3QLW5CURRF4X2RYEAUxkFQqOI666rqehIEksDjx0IeuYwBmpXbkLX8ydn5Stcdaxp03h/y+/2Txdcq48nkqduamu16k8uuy/xzCS18vdIKtb/3OR2O+ZhNU0p5/r7vc73dMhoOgXV/qxlqktRaXwL97w1aPn9H0KQx6rsmKpCoQKICiQokKpCoQKICiQokKpCoQKICiQokKpCoQKICiQokKpCoQKICiQokKpCoQKICiQokKpCoQKICiQokKpCoQKICiQokKpCoQKICiQokKpCoQKICiQokKpCoQKICiQokKpCoQKICiQokKpCoQKICiQokKpCoQA+gESjDYf1NBwAAAABJRU5ErkJggg=="/>
    </defs>
</svg>
